X: 201665
T: Tom Rowsome's
S: B.Breathnach:"Ceol Rince na hEireann" IV/59 (gan ainm) 
Z: B.Black
L: 1/8
M: 12/8
Q: 360
R: jig
K: G
D|G2B d2B e2d c2A|d2c B2G A2G FED|
G2B d2B e2d c2A|B2d cAF G3 G2 :|
B|AFD D3 B2G G3|c2A A3 d3 d2B|
c2B c2d e2d c2A|B2d cAF G3 G2 :|
